!!!!SEGMENT: pl-gd--ee-1638--002-011_marenzio-luca--motettorum-pro-festis-totius-anni-in-festo-pentecostes-hodie-completi-sunt-dies.krn
!!!cenid: 15xx:1014
!!!COM: Marenzio, Luca
!!!COM-rismID: pe30003955
!!!CDT: ~1553-1599/08/22
!!!CNT: Italian
!!!GTL: Motettorum pro festis totius anni
!!!OTL: In festo Pentecostes/Hodie completi sunt dies
!!!OMV: 011
!!!PDT: 1588
!!!AGN:
!!!SMS-siglum: PL-GD
!!!SMS-shelfmark: Ee 1638
!!!SMS-shelfwork: 002-011 G
!!!SMS-variant:
!!!SMS-altvar:
!!!NIFC-rismSourceID: 990039238
!!!NIFC-islandoraID: pl-gd:57883
!!!URL-pdf-islandora: https://repozytorium.nifc.pl/islandora/object/pl-gd%3A57883/datastream/PDF/view
!!!URL-scan: https://polish.musicsources.pl/pl/lokalizacje/galeria/klocki-introligatorskie/655 @EN{Scan on Polish Music Herritage in Open Access Website} @PL{Skany w portalu Dziedzictwo Muzyki Polskiej w otwartym dostępie}
!!!ONB-nifc: UWAGA: Cantus: s. 621 (od 2 ostatnich systemów po lewej), Altus: s. 469, Tenor: s. 317, Bassus: s. 165 (prawa)
!!!AIN: 1 alto 1 bass 1 soprn 1 tenor
!!!key:
**kern	**text	**kern	**text	**kern	**text	**kern	**text
*part4	*part4	*part3	*part3	*part2	*part2	*part1	*part1
*staff4	*staff4	*staff3	*staff3	*staff2	*staff2	*staff1	*staff1
*I"Basso	*	*I"Tenor	*	*I"Altus	*	*I"Cantus	*
*I'B	*	*I'T	*	*I'A	*	*I'C	*
*Ibass	*	*Itenor	*	*Ialto	*	*Isoprn	*
*ICvox	*	*ICvox	*	*ICvox	*	*ICvox	*
*IG	*	*	*	*	*	*	*
*clefF4	*	*clefC4	*	*clefC3	*	*clefC1	*
*k[]	*	*k[]	*	*k[]	*	*k[]	*
*C:	*	*C:	*	*C:	*	*C:	*
*M2/1	*	*M2/1	*	*M2/1	*	*M2/1	*
*met(C|)	*	*met(C|)	*	*met(C|)	*	*met(C|)	*
=1-	=1-	=1-	=1-	=1-	=1-	=1-	=1-
!	!	!	!	!	!	!LO:TX:a:B:t=Prestissimo	!
1.C	HO-	1r	.	1r	.	1.e	HO-
.	.	1.c	HO-	1.e	HO-	.	.
2D/	-di-	.	.	.	.	2f/	-di-
=2-	=2-	=2-	=2-	=2-	=2-	=2-	=2-
1E	-e	.	.	.	.	1g	-e
.	.	2B\	-di-	2d\	-di-	.	.
2r	.	1A	-e	1c	-e	2r	.
1A\	Ho-	.	.	.	.	1cc\	Ho-
=3-	=3-	=3-	=3-	=3-	=3-	=3-	=3-
.	.	1.c	Ho-	1.A	Ho-	.	.
2G\	-di-	.	.	.	.	2b\	-di-
1F	-e	.	.	.	.	1a	-e
.	.	2d\	-di-	2B/	-di-	.	.
=4-	=4-	=4-	=4-	=4-	=4-	=4-	=4-
0C	com-	1e	-e	1c	-e	0g	com-
.	.	2c\	com-	1e	com-	.	.
.	.	1c\	-ple-	.	.	.	.
=5-	=5-	=5-	=5-	=5-	=5-	=5-	=5-
1.G	-ple-	.	.	1.d	-ple-	1.g	-ple-
.	.	4B\	.	.	.	.	.
.	.	4A/	.	.	.	.	.
.	.	2B\	.	.	.	.	.
2C/	-ti	2c\	-ti	2e\	-ti	2g/	-ti
=6-	=6-	=6-	=6-	=6-	=6-	=6-	=6-
1C	ſunt	1c	ſunt	2.e\	ſunt	1g	ſunt
.	.	.	.	4d\	.	.	.
2.F\	di-	2.A/	di-	1c	.	2.a\	di-
4E\	-es	4e\	-es	.	.	4g/	-es
=7-	=7-	=7-	=7-	=7-	=7-	=7-	=7-
2F\	Pen-	2d\	Pen-	1r	.	2a\	Pen-
2G\	-te-	2d\	-te-	.	.	2b\	-te-
!	!	!LO:SIC:v:t=custos d	!	!	!	!	!
0A	-coſ-	0c	-co-	2.e\	di-	0cc	-coſ-
!	!	!LO:LB:g=original	!	!	!	!	!
.	.	.	.	4d\	-es	.	.
=8-	=8-	=8-	=8-	=8-	=8-	=8-	=8-
.	.	.	.	2e\	Pen-	.	.
.	.	.	.	2f\	-te-	.	.
!LO:SIC:v:t=custos D	!	!	!	!	!	!	!
0G	-tes	1d	-ſtes	1g	-coſ-	1b	-tes
!LO:LB:g=original	!	!	!	!	!	!	!
=9-	=9-	=9-	=9-	=9-	=9-	=9-	=9-
.	.	2r	.	1d	-tes	2r	.
.	.	2B\	Al-	.	.	2g/	Al-
!	!	!	!	!LO:SIC:v:t=custos d	!	!	!
1r	.	4c\	-le-	1r	.	4e/	-le-
!	!	!	!	!LO:LB:g=original	!	!LO:SIC:v:t=custos g	!
.	.	4d\	.	.	.	4f/	.
!	!	!	!	!	!	!LO:LB:g=original	!
.	.	4e\	.	.	.	4g/	.
.	.	4c\	.	.	.	4e/	.
=10-	=10-	=10-	=10-	=10-	=10-	=10-	=10-
2r	.	4d\	.	2r	.	4f/	.
.	.	4e\	.	.	.	4g/	.
2D/	Al-	2f\	.	2d\	Al-	4a\	.
.	.	.	.	.	.	4b\	.
4E\	-le-	1e	-lu-	4G/	-le-	2cc\	.
4F\	.	.	.	4A/	.	.	.
4G\	.	.	.	4B/	.	2b\	-lu-
4E\	.	.	.	4G/	.	.	.
=11-	=11-	=11-	=11-	=11-	=11-	=11-	=11-
4F\	.	1c	-ia	4A/	.	1a	-ia
4G\	.	.	.	4B/	.	.	.
4A\	.	.	.	4c/	.	.	.
4B\	.	.	.	4d\	.	.	.
2c\	.	2r	.	2e\	.	2r	.
*	*	*	*ij	*	*	*	*ij
2B\	-lu-	2G/	Al-	2d\	-lu-	2g/	Al-
=12-	=12-	=12-	=12-	=12-	=12-	=12-	=12-
2A\	-ia	4c\	-le-	1e	-ia	4a\	-le-
.	.	4d\	.	.	.	4b\	.
*	*ij	*	*	*	*	*	*
2A\	Al-	4e\	.	.	.	4cc\	.
.	.	4c\	.	.	.	4a\	.
2G\	-le-	4d\	.	2r	.	4b\	.
.	.	4e\	.	.	.	4cc\	.
*	*	*	*	*	*ij	*	*
2F\	lu-	2.f\	.	2a\	Al-	2.dd\	.
=13-	=13-	=13-	=13-	=13-	=13-	=13-	=13-
*lig	*	*	*	*	*	*	*
1A	-ia	.	.	4a\	-le-	.	.
*	*Xij	*	*	*	*	*	*
.	.	4e\	.	8g\	.	4cc\	.
.	.	.	.	8f\	.	.	.
.	.	4e\	.	4e\	.	1cc	.
.	.	8d\	.	4f\	.	.	.
.	.	8c\	.	.	.	.	.
1G	.	2.d\	.	2g\	.	.	.
!	!	!	!	!	!	!LO:SIC:v:t=custos cc	!
.	.	.	.	2g\	-lu-	2b\	-lu-
!	!	!LO:SIC:v:t=custos c	!	!	!	!LO:LB:g=original	!
.	.	4d\	-lu-	.	.	.	.
!	!	!LO:LB:g=original	!	!	!	!	!
*Xlig	*	*	*	*	*	*	*
=14-	=14-	=14-	=14-	=14-	=14-	=14-	=14-
1r	.	1c	-ia	1e	-ia	1cc	-ia
*	*	*	*Xij	*	*Xij	*	*Xij
1.C	Ho-	2r	.	2r	.	1.g	Ho-
.	.	1c\	Ho-	1e\	HO-	.	.
=15-	=15-	=15-	=15-	=15-	=15-	=15-	=15-
.	.	.	.	.	.	.	.
2C/	-di-	2c\	-di-	2e\	-di-	2g/	-di-
1C	-e	1c	-e	1e	-e	1g	-e
=16-	=16-	=16-	=16-	=16-	=16-	=16-	=16-
1.F	Spi-	1.c	Spi-	1.f	Spi-	1.a	Spi-
!	!	!	!	!LO:SIC:v:t=custos f	!	!	!
2D/	-ri-	2d\	-ri-	2f\	-ri-	2a\	-ri-
!	!	!	!	!LO:LB:g=original	!	!	!
=17-	=17-	=17-	=17-	=17-	=17-	=17-	=17-
!LO:SIC:v:t=custos B	!	!	!	!	!	!	!
1F	-tus	1c	-tus	1.f	-tus	1a	-tus
!LO:LB:g=original	!	!	!	!	!	!	!
2.B\	ſan-	2.d\	ſan-	.	.	0b-X	ſan-
.	.	.	.	2.f\	ſan-	.	.
4A\	.	4c\	.	.	.	.	.
=18-	=18-	=18-	=18-	=18-	=18-	=18-	=18-
1G	.	1B-X	.	.	.	.	.
.	.	.	.	8e\	.	.	.
.	.	.	.	8d\	.	.	.
.	.	.	.	2e\	.	.	.
1F	-ctus	1c	-ctus	1f	-ctus	1a	-ctus
=19-	=19-	=19-	=19-	=19-	=19-	=19-	=19-
2C/	in	2c\	in	2e\	in	2g/	in
1G	ig-	1Bny	ig-	1d	ig-	1g	ig-
2D/	-ne	2A/	-ne	2d\	-ne	2f/	-ne
=20-	=20-	=20-	=20-	=20-	=20-	=20-	=20-
2E\	diſ-	2G#X/	diſ-	2B/	diſ-	2e/	diſ-
2.E\	-ci-	2.G#/	-ci-	2.B/	-ci-	2.e/	-ci-
4E\	-pu-	4G#/	-pu-	4B/	-pu-	4e/	-pu-
2AA/	-lis	2A/	-lis	2c/	-lis	2e/	-lis
=21-	=21-	=21-	=21-	=21-	=21-	=21-	=21-
2D/	ap-	1F	ap-	1A	ap-	2f/	ap-
1F	-pa-	.	.	.	.	1a	-pa-
.	.	2A/	-pa-	2c/	-pa-	.	.
2C/	-ru-	1c\	-ru-	2e\	-ru-	2g/	-ru-
=22-	=22-	=22-	=22-	=22-	=22-	=22-	=22-
0G	-it	.	.	0d	-it	0.g	-it
.	.	4B\	.	.	.	.	.
!	!	!LO:SIC:v:t=custos B	!	!	!	!	!
.	.	4A/	.	.	.	.	.
!	!	!LO:LB:g=original	!	!	!	!	!
.	.	1B	-it	.	.	.	.
=23-	=23-	=23-	=23-	=23-	=23-	=23-	=23-
1C	et	2r	.	0r	.	.	.
.	.	2c\	et	.	.	.	.
2.F\	tri-	2.A/	tri-	.	.	1r	.
4F\	-bu-	4A/	-bu-	.	.	.	.
=24-	=24-	=24-	=24-	=24-	=24-	=24-	=24-
2E\	-iot	2Gny/	-it	2r	.	1ee	ex
2A\	e-	2c\	e-	2e\	et	.	.
1G	-is	1d	-is	2.g\	tri-	2.bny\	tri-
!	!	!	!	!	!	!LO:SIC:v:t=custos cc	!
.	.	.	.	4g\	-bu-	4b\	-bu-
!	!	!	!	!	!	!LO:LB:g=original	!
=25-	=25-	=25-	=25-	=25-	=25-	=25-	=25-
2r	.	2r	.	2a\	-it	2cc\	-it
*	*	*	*ij	*	*	*	*
2C/	et	2c\	et	2e\	e-	2g/	e-
!	!	!	!	!LO:SIC:v:t=custos g	!	!	!
2.AA/	tri-	2.c\	tri-	1e	-is	1a	-is
!	!	!	!	!LO:LB:g=original	!	!	!
!LO:SIC:v:t=custos GG	!	!	!	!	!	!	!
4AA/	-bu-	4c\	-bu-	.	.	.	.
!LO:LB:g=original	!	!	!	!	!	!	!
=26-	=26-	=26-	=26-	=26-	=26-	=26-	=26-
2GG/	-it	2B\	-it	2r	.	2r	.
*	*	*	*	*	*ij	*	*ij
2C/	e-	2e\	e-	2g\	et	2cc\	ex
1D	-is	2d\	-is	2.f\	tri-	2.a\	tri-
*	*	*	*Xij	*	*	*	*
.	.	2d\	cha-	.	.	.	.
.	.	.	.	4f\	-bu-	4a\	-bu-
=27-	=27-	=27-	=27-	=27-	=27-	=27-	=27-
2r	.	2G/	-riſ-	2e\	-it	2g/	-it
*	*ij	*	*	*	*	*	*
2F\	et	2A/	-ma-	1f	e-	2cc\	e-
2.D/	tri-	1B	-tum	.	.	2dd\	-is
*	*	*	*	*	*	*	*Xij
.	.	.	.	2d\	-is	2dd\	cha-
4D/	-bu-	.	.	.	.	.	.
=28-	=28-	=28-	=28-	=28-	=28-	=28-	=28-
*	*	*lig	*	*	*	*	*
2C/	-it	1c	do-	2r	.	2g/	-riſ-
2F\	e-	.	.	2f\	et	2a\	-ma-
2G\	-is	1B	.	2.d\	tri-	1b	-tum
*	*Xij	*	*	*	*	*	*
2G\	cha-	.	.	.	.	.	.
.	.	.	.	4d\	-bu-	.	.
*	*	*Xlig	*	*	*	*	*
=29-	=29-	=29-	=29-	=29-	=29-	=29-	=29-
*	*	*	*	*	*	*lig	*
2C/	-riſ-	1A	-na	2c/	-it	1cc	do-
2D/	-ma-	.	.	2f\	e-	.	.
1E	-tum	1r	.	2g\	-is	1b	.
*	*	*	*	*	*Xij	*	*
.	.	.	.	2g\	cha-	.	.
*	*	*	*	*	*	*Xlig	*
=30-	=30-	=30-	=30-	=30-	=30-	=30-	=30-
*lig	*	*	*	*	*	*	*
1F	do-	0r	.	2c/	-riſ-	1a	-na
.	.	.	.	2d\	-ma-	.	.
1E	.	.	.	1e	-tum	4g/	mi-
.	.	.	.	.	.	4a\	.
.	.	.	.	.	.	4b\	.
.	.	.	.	.	.	4cc\	.
*Xlig	*	*	*	*	*	*	*
=31-	=31-	=31-	=31-	=31-	=31-	=31-	=31-
*	*	*	*	*lig	*	*	*
1D	-na	2r	.	1f	do-	2dd\	.
!	!	!LO:SIC:v:t=custos G	!	!	!	!	!
.	.	2d\	cha-	.	.	4a\	-ſit
!	!	!LO:LB:g=original	!	!	!	!LO:SIC:v:t=custos cc	!
.	.	.	.	.	.	2dd\	e-
!	!	!	!	!	!	!LO:LB:g=original	!
1r	.	2G/	-riſ-	1e	.	.	.
.	.	.	.	.	.	8cc\	.
.	.	.	.	.	.	8b\	.
.	.	2A/	-ma-	.	.	2cc#X\	.
*	*	*	*	*Xlig	*	*	*
=32-	=32-	=32-	=32-	=32-	=32-	=32-	=32-
0r	.	1B	-tum	1d	-na	2dd\	-os
.	.	.	.	.	.	2dd\	cha-
*	*	*lig	*	*	*	*	*
.	.	1c	do-	4c\	mi-	2g/	-riſ-
.	.	.	.	4d\	.	.	.
.	.	.	.	4e\	.	2a\	-ma-
!	!	!	!	!LO:SIC:v:t=custos g	!	!	!
.	.	.	.	4f\	.	.	.
!	!	!	!	!LO:LB:g=original	!	!	!
=33-	=33-	=33-	=33-	=33-	=33-	=33-	=33-
0r	.	1B	.	2g\	.	1b	-tum
.	.	.	.	4d\	-ſit	.	.
.	.	.	.	2g\	e-	.	.
*	*	*Xlig	*	*	*	*lig	*
.	.	1A	-na	.	.	1cc	do-
.	.	.	.	8f\	.	.	.
.	.	.	.	8e\	.	.	.
.	.	.	.	2f#X\	.	.	.
=34-	=34-	=34-	=34-	=34-	=34-	=34-	=34-
1r	.	4G/	mi-	2g\	-os	1b	.
.	.	4A/	.	.	.	.	.
.	.	4B\	.	2d\	in	.	.
.	.	4c\	.	.	.	.	.
*	*	*	*	*	*	*Xlig	*
1D	in	2d\	.	2.fny\	v-	0a	-na
.	.	4A/	-ſit	.	.	.	.
.	.	2d\	e-	4f\	-ni-	.	.
=35-	=35-	=35-	=35-	=35-	=35-	=35-	=35-
2.A\	v-	.	.	2e\	-uer-	.	.
.	.	8c\	.	.	.	.	.
.	.	8B\	.	.	.	.	.
.	.	2c#X\	.	2f\	-ſum	.	.
4A\	-ni-	.	.	.	.	.	.
2G\	-uer-	2d\	-os	2g\	mun-	1r	.
2F\	-ſum	2A/	in	2c/	-dum	.	.
=36-	=36-	=36-	=36-	=36-	=36-	=36-	=36-
4E\	mun-	2.e\	v-	2c/	prae-	4g/	mi-
4F\	.	.	.	.	.	4a\	.
4G\	.	.	.	2B/	-di-	4b\	.
!LO:SIC:v:t=custos F	!	!	!	!	!	!	!
4E\	.	4e\	-ni-	.	.	4cc\	.
!LO:LB:g=original	!	!	!	!	!	!	!
2.F\	.	2d\	-uer-	0A	-ca-	2dd\	.
.	.	2f\	-ſum	.	.	4a\	-ſit
4D/	.	.	.	.	.	2dd\	e-
=37-	=37-	=37-	=37-	=37-	=37-	=37-	=37-
1A	.	1e	mun-	.	.	.	.
.	.	.	.	.	.	8cc\	.
.	.	.	.	.	.	8b\	.
.	.	.	.	.	.	2cc#X\	.
1D	-dum	1d	-dum	1A	-re	2dd\	-os
.	.	.	.	.	.	2d/	in
=38-	=38-	=38-	=38-	=38-	=38-	=38-	=38-
0r	.	1r	.	4A/	mi-	2.a\	v-
.	.	.	.	4B/	.	.	.
.	.	.	.	4c/	.	.	.
!	!	!	!	!	!	!LO:SIC:v:t=custos g	!
.	.	.	.	4d\	.	4a\	-ni-
!	!	!	!	!	!	!LO:LB:g=original	!
.	.	2r	.	2e\	.	2g/	-uer-
!	!	!LO:SIC:v:t=custos A	!	!	!	!	!
.	.	2D/	in	4A/	-ſit	2f/	-ſum
!	!	!LO:LB:g=original	!	!LO:SIC:v:t=custos c	!	!	!
.	.	.	.	2d\	e-	.	.
!	!	!	!	!LO:LB:g=original	!	!	!
=39-	=39-	=39-	=39-	=39-	=39-	=39-	=39-
0r	.	2.A/	v-	.	.	2.e/	mun-
.	.	.	.	8c/	.	.	.
.	.	.	.	8B/	.	.	.
.	.	.	.	2c#X/	.	.	.
.	.	4A/	-ni-	.	.	4f/	.
.	.	2G/	-uer-	2d\	-os	4g/	.
.	.	.	.	.	.	4d/	.
.	.	2F/	-ſum	2A/	in	2a\	.
=40-	=40-	=40-	=40-	=40-	=40-	=40-	=40-
1r	.	4E/	mun-	2.e\	u-	4g/	-dum
.	.	4F/	.	.	.	4a\	.
.	.	4G/	.	.	.	4b\	.
.	.	4E/	.	4e\	-ni-	4g/	.
2r	.	4F/	.	2d\	-uer-	2a\	.
.	.	4G/	.	.	.	.	.
*	*ij	*	*	*	*	*	*
2AA/	in	2.A/	.	1cny\	-ſum	2e/	in
=41-	=41-	=41-	=41-	=41-	=41-	=41-	=41-
2.E\	u-	.	.	.	.	2.e/	v-
.	.	4G#X/	.	.	.	.	.
.	.	2G#/	.	2.B/	mun-	.	.
4E\	-ni-	.	.	.	.	4e/	-ni-
*	*	*lig	*	*	*	*	*
2D/	-ver-	1A	-dum	.	.	2f/	-uer-
.	.	.	.	4A/	.	.	.
2C/	-sum	.	.	2.A/	.	2e/	-ſ
=42-	=42-	=42-	=42-	=42-	=42-	=42-	=42-
1BB	mun-	1B	.	.	.	1d	um
.	.	.	.	4G#X/	.	.	.
.	.	.	.	2G#/	.	.	.
*	*	*Xlig	*	*	*	*	*
2AA/	-dum	2r	.	1A	-dum	1c	mun-
*	*Xij	*	*	*	*	*	*
1F\	prae-	1A\	prae-	.	.	.	.
=43-	=43-	=43-	=43-	=43-	=43-	=43-	=43-
.	.	.	.	2r	.	2d/	-du(m)
2E\	-di-	2Gny/	-di-	1c	prae-	2e/	prae-
0D	-ca-	0d	-ca-	.	.	2f#X/	-di-
.	.	.	.	2B/	-di-	2.g/	-ca-
=44-	=44-	=44-	=44-	=44-	=44-	=44-	=44-
.	.	.	.	1A	-ca-	.	.
.	.	.	.	.	.	8fny/	.
!	!	!	!	!	!	!LO:SIC:v:t=custos f	!
.	.	.	.	.	.	8e/	.
!	!	!	!	!	!	!LO:LB:g=original	!
.	.	.	.	.	.	2f#X/	.
2GG/	-re	1B	-re	1Gny	-re	1g	-re
2.G\	et	.	.	.	.	.	.
=45-	=45-	=45-	=45-	=45-	=45-	=45-	=45-
.	.	2.d\	et	0r	.	0r	.
4F\	teſ-	.	.	.	.	.	.
2G\	-ti-	.	.	.	.	.	.
.	.	4B\	teſ-	.	.	.	.
!	!	!LO:SIC:v:t=custos A	!	!	!	!	!
2E\	-fi-	1cny	-ti-	.	.	.	.
!	!	!LO:LB:g=original	!	!	!	!	!
2.F\	-ca-	.	.	.	.	.	.
=46-	=46-	=46-	=46-	=46-	=46-	=46-	=46-
.	.	2A/	-fi-	0r	.	0r	.
4E\	.	.	.	.	.	.	.
4D/	.	2.c\	-ca-	.	.	.	.
4C/	.	.	.	.	.	.	.
!LO:SIC:v:t=custos C	!	!	!	!	!	!	!
1D	.	.	.	.	.	.	.
!LO:LB:g=original	!	!	!	!	!	!	!
.	.	8B\	.	.	.	.	.
.	.	8A\	.	.	.	.	.
.	.	2B\	.	.	.	.	.
=47-	=47-	=47-	=47-	=47-	=47-	=47-	=47-
0C	-ri	0c	-ri	1r	.	1r	.
.	.	.	.	2.e\	qui	2.g/	qui
!	!	!	!	!LO:SIC:v:t=custos d	!	!	!
.	.	.	.	4c/	cre-	4e/	cre-
!	!	!	!	!LO:LB:g=original	!	!	!
=48-	=48-	=48-	=48-	=48-	=48-	=48-	=48-
1r	.	1r	.	2d\	-di-	2fny/	-di-
.	.	.	.	2e\	-de-	2g/	-de-
2.F\	qui	2.A/	qui	1f	-rit	1c	-rit
4A\	cre-	4c\	cre-	.	.	.	.
=49-	=49-	=49-	=49-	=49-	=49-	=49-	=49-
2G\	-di-	2B\	-di-	1r	.	1r	.
2F\	-de-	2A/	-de-	.	.	.	.
*	*	*	*	*	*ij	*	*ij
1E	-rit	1e	-rit	2.g\	qui	2.b\	qui
.	.	.	.	4e\	cre-	4g/	cre-
=50-	=50-	=50-	=50-	=50-	=50-	=50-	=50-
2r	.	1r	.	2f\	-di-	2a\	-di-
2G\	et	.	.	2g\	-de-	2b\	-de-
2A\	lap-	2r	.	1c	-rit	2ccny\	-rit
*	*	*	*	*	*Xij	*	*Xij
2F\	-ti-	2A/	et	.	.	2a\	er
=51-	=51-	=51-	=51-	=51-	=51-	=51-	=51-
2.G\	-za-	2d\	bap-	0r	.	2b\	bap-
.	.	2B\	-ti-	.	.	2g/	-ti-
4G\	-tus	.	.	.	.	.	.
2F\	fu-	2.c\	-za-	.	.	2a\	-za-
2E\	-e-	.	.	.	.	2g/	-tus
.	.	4c\	-tus	.	.	.	.
=52-	=52-	=52-	=52-	=52-	=52-	=52-	=52-
1D	-rit	2B\	fu-	1r	.	2g/	fu-
.	.	2A/	-e-	.	.	2f#X/	-e-
1r	.	1G	-rit	2r	.	0g	-rit
.	.	.	.	2d\	et	.	.
=53-	=53-	=53-	=53-	=53-	=53-	=53-	=53-
1r	.	2r	.	2e\	bap-	.	.
.	.	1e	ſa-	2c/	-ti-	.	.
1E	ſa-	.	.	2.g\	-za-	1r	.
!	!	!LO:SIC:v:t=custos d	!	!	!	!	!
.	.	2B\	-luus	.	.	.	.
!	!	!LO:LB:g=original	!	!	!	!	!
.	.	.	.	4g\	-tus	.	.
=54-	=54-	=54-	=54-	=54-	=54-	=54-	=54-
!	!	!	!	!	!	!LO:SIC:v:t=custos dd	!
1F	-luus	4d\	e-	2f\	fu-	1r	.
!	!	!	!	!	!	!LO:LB:g=original	!
.	.	4c\	.	.	.	.	.
.	.	1c	.	2e\	-e-	.	.
1G	e-	.	.	1d	-rit	2r	.
*	*	*	*	*	*	*	*ij
.	.	2B\	.	.	.	2dd\	et
=55-	=55-	=55-	=55-	=55-	=55-	=55-	=55-
1C	-rit	1c	-rit	2r	.	2ee\	bap-
.	.	.	.	2e\	ſa-	2cc\	-ti-
2r	.	1r	.	2f\	-luus	2.dd\	-za-
2G\	et	.	.	2g\	e-	.	.
.	.	.	.	.	.	4dd\	-tus
=56-	=56-	=56-	=56-	=56-	=56-	=56-	=56-
!	!	!	!	!LO:SIC:v:t=custos f	!	!	!
2A\	bap-	1r	.	2c/	-rit	1cc	fu-
!	!	!	!	!LO:LB:g=original	!	!	!
!LO:SIC:v:t=custos G	!	!	!	!	!	!	!
*	*	*	*	*	*ij	*	*
2F\	-ti-	.	.	2f\	et	.	.
!LO:LB:g=original	!	!	!	!	!	!	!
*	*	*	*ij	*	*	*	*
2.G\	-za-	1B	sa-	2d\	bap-	1b	-e-
.	.	.	.	2e\	-ti-	.	.
4G\	-tus	.	.	.	.	.	.
=57-	=57-	=57-	=57-	=57-	=57-	=57-	=57-
2F\	fu-	1c	-luus	2f\	-za-	0a	-rit
*	*	*	*	*	*	*	*Xij
2E\	-e-	.	.	2.g\	-tus	.	.
1D	-rit	1d	e-	.	.	.	.
.	.	.	.	8f\	fu-	.	.
.	.	.	.	8e\	-e-	.	.
.	.	.	.	2f#X\	-rit	.	.
=58-	=58-	=58-	=58-	=58-	=58-	=58-	=58-
0r	.	1G	-rit	2g\	sa-	2r	.
*	*	*	*Xij	*	*	*	*
.	.	.	.	2d\	-luus	2b\	et
.	.	1r	.	2e\	e-	2cc\	bap-
.	.	.	.	2c/	-rit	2a\	-ti-
=59-	=59-	=59-	=59-	=59-	=59-	=59-	=59-
*	*	*	*	*	*Xij	*	*
1BB	ſa-	0r	.	2.d\	et	2.b\	-za-
.	.	.	.	4d\	bap-	4b\	-tus
1C	-luus	.	.	2c/	-ti-	2a\	fu-
.	.	.	.	2B/	-za-	2.g/	-e-
=60-	=60-	=60-	=60-	=60-	=60-	=60-	=60-
1D	e-	1r	.	1A	-tus	.	.
.	.	.	.	.	.	8fny/	.
.	.	.	.	.	.	8e/	.
.	.	.	.	.	.	2f#X/	.
1GG	-rit	2r	.	1B	fu-	1g	-rit
*	*	*	*ij	*	*	*	*
.	.	1G/	sa-	.	.	.	.
=61-	=61-	=61-	=61-	=61-	=61-	=61-	=61-
1C	Al-	.	.	2.c/	-e-	1e	ſa-
.	.	1A	-luus	.	.	.	.
.	.	.	.	4B/	-rit	.	.
!	!	!	!	!	!	!LO:SIC:v:t=custos e	!
1D	.	.	.	2A/	ſa-	1fny	-luus
!	!	!	!	!	!	!LO:LB:g=original	!
.	.	2.B\	e-	2.d\	-luus	.	.
=62-	=62-	=62-	=62-	=62-	=62-	=62-	=62-
0E	.	.	.	.	.	0e	e-
.	.	4A/	-r-	4c/	e-	.	.
!	!	!	!	!LO:SIC:v:t=custos B	!	!	!
.	.	2.A/	.	4c/	.	.	.
!	!	!	!	!LO:LB:g=original	!	!	!
.	.	.	.	8B/	.	.	.
.	.	.	.	8A/	.	.	.
.	.	.	.	1B	.	.	.
.	.	4G#X/	.	.	.	.	.
.	.	2G#/	.	.	.	.	.
=63-	=63-	=63-	=63-	=63-	=63-	=63-	=63-
1AA	.	1A	-rit	2A/	-rit	1e	-rit
*	*	*	*Xij	*	*	*	*
.	.	.	.	2.a\	Al-	.	.
2.A\	-le-	2.c\	Al-	.	.	2r	.
.	.	.	.	8g\	.	.	.
.	.	.	.	8fny\	.	.	.
.	.	.	.	1e\	.	2.ee\	Al-
8G\	.	4d\	.	.	.	.	.
8F\	.	.	.	.	.	.	.
=64-	=64-	=64-	=64-	=64-	=64-	=64-	=64-
2E\	.	2.e\	.	.	.	.	.
.	.	.	.	.	.	8dd\	.
.	.	.	.	.	.	8cc\	.
2.G\	-lu-	.	.	2.g\	-le-	1b	.
.	.	8d\	.	.	.	.	.
!	!	!LO:SIC:v:t=custos B	!	!	!	!	!
.	.	8c\	.	.	.	.	.
!	!	!LO:LB:g=original	!	!	!	!	!
.	.	1B	.	.	.	.	.
8F\	.	.	.	8f\	.	.	.
8E\	.	.	.	8e\	.	.	.
1D\	.	.	.	1d\	.	2.dd\	-le-
=65-	=65-	=65-	=65-	=65-	=65-	=65-	=65-
.	.	2.d\	-le-	.	.	.	.
.	.	.	.	.	.	8cc\	.
.	.	.	.	.	.	8b\	.
2.F\	.	.	.	2.f\	-lu-	1a	.
.	.	8c\	.	.	.	.	.
.	.	8B\	.	.	.	.	.
.	.	2.A/	.	.	.	.	.
8E\	.	.	.	8e\	.	.	.
!LO:SIC:v:t=custos C	!	!	!	!	!	!	!
8D\	.	.	.	8d\	.	.	.
!LO:LB:g=original	!	!	!	!	!	!	!
2.C/	.	.	.	2.c/	.	2.cc\	-lu-
.	.	4B\	.	.	.	.	.
=66-	=66-	=66-	=66-	=66-	=66-	=66-	=66-
.	.	1c	.	.	.	.	.
8BB/	.	.	.	4d\	.	8b\	.
8AA/	.	.	.	.	.	8a\	.
4GG/	.	.	.	4e\	.	4g/	.
4AA/	.	.	.	4f\	.	4a\	.
4BB/	.	1d	-lu-	2.g\	.	4b\	.
4C/	.	.	.	.	.	4cc\	.
2.D/	.	.	.	.	.	2.dd\	.
.	.	.	.	8f\	.	.	.
.	.	.	.	8e\	.	.	.
=67-	=67-	=67-	=67-	=67-	=67-	=67-	=67-
.	.	2.f\	-ia	4d\	.	.	.
!	!	!	!	!LO:SIC:v:t=custos f	!	!	!
8C/	.	.	.	4e\	.	8cc\	.
!	!	!	!	!LO:LB:g=original	!	!	!
!	!	!	!	!	!	!LO:SIC:v:t=custos a	!
8BB/	.	.	.	.	.	8b\	.
!	!	!	!	!	!	!LO:LB:g=original	!
4AA/	.	.	.	4f\	.	4a\	.
4BB/	.	8e\	.	4g\	.	4b\	.
.	.	8d\	.	.	.	.	.
4C/	.	2e\	.	1a	.	1cc	.
4D/	.	.	.	.	.	.	.
4E\	.	2.e\	Al-	.	.	.	.
4F\	.	.	.	.	.	.	.
=68-	=68-	=68-	=68-	=68-	=68-	=68-	=68-
4G\	.	.	.	4g\	-ia	2b\	-ia
4F\	.	8d\	.	8f\	.	.	.
.	.	8c\	.	8e\	.	.	.
4E\	.	2B\	.	2d\	.	2b\	Al-
4D/	.	.	.	.	.	.	.
4C/	.	2B\	-le-	2r	.	2g/	-le-
4BB/	.	.	.	.	.	.	.
*	*	*	*	*	*ij	*	*
4AA/	.	2.c\	-lu-	2g\	Al-	2.e/	-lu-
4BB/	.	.	.	.	.	.	.
=69-	=69-	=69-	=69-	=69-	=69-	=69-	=69-
1.C	.	.	.	4a\	-le-	.	.
.	.	8B\	.	8g\	.	4d/	.
.	.	8A\	.	8f\	.	.	.
.	.	2.Gny/	.	4e\	.	4c/	.
.	.	.	.	4f\	.	4d/	.
.	.	.	.	1g	-lu-	4e/	.
!	!	!LO:SIC:v:t=custos B	!	!	!	!	!
.	.	4A/	.	.	.	4f/	.
!	!	!LO:LB:g=original	!	!	!	!	!
4BB/	.	4B\	.	.	.	4g/	.
4AA/	.	4c\	.	.	.	4a\	.
=70-	=70-	=70-	=70-	=70-	=70-	=70-	=70-
0GG	.	4d\	.	0g	.	2b\	.
.	.	4B\	.	.	.	.	.
.	.	2e\	.	.	.	2.cc\	.
.	.	1d	.	.	.	.	.
.	.	.	.	.	.	8b\	.
.	.	.	.	.	.	8a\	.
.	.	.	.	.	.	2b\	.
=71-	=71-	=71-	=71-	=71-	=71-	=71-	=71-
00C	-ia.	00c	-ia.	00e	-ia	00cc	-ia.
*	*	*	*	*	*Xij	*	*
=72-	=72-	=72-	=72-	=72-	=72-	=72-	=72-
.	.	.	.	.	.	.	.
=-	=-	=-	=-	=-	=-	=-	=-
*-	*-	*-	*-	*-	*-	*-	*-
!!!system-decoration: s1,s2,s3,s4
!!!ENC: Andrzej Gręziak
!!!END: 2022-06-30
!!!ENC: Julita Ruszuk
!!!END: 2022-07-05
